X:1
T:God be merciful unto us
T:God be merciful unto us (Joseph Key)
C:Joseph Key
Z:Text: Ps. 67 (similarities to both
Z:BCP and AV) and doxology
%%score [ 1 2 3 ( 4 5 ) ]
L:1/8
M:3/2
K:C
V:1 treble nm="Soprano" snm="S."
V:2 treble nm="Alto" snm="A."
V:3 treble-8 transpose=-12 nm="Tenor" snm="T."
V:4 bass nm="Bass" snm="B."
V:5 bass 
V:1
 A8 ^G4 | A6 B2 c4 | (d2 c2) B8 | A8 ^G4 | c4 c4 B4 | (A4 ^G4) c4 | B8 c4 | (B3 c B4) A4 | %8
w: God be|mer- ci- ful|un- * to|us, and|bless us, and|cause _ his|face to|shine _ _ up-|
 ^G4 G4 z4 | z12 | z12 | z8 B4 | (c4 B2 A2) (^G2 A2) | B8 c4 | (B2 A2) T^G8 | A4 A8 || %16
w: on us:|||thy|sav- * * ing _|health a-|mong _ all|na- tions.|
[M:2/2]"^Chorus" AAAA ^G2 G2 | (A2 Bc) B4 | cccc B2 B2 | A4 ^G4 | A2 ^GA B2 c2 | (B2 A2 ^G4 | %22
w: Let the peo- ple praise thee,|O _ _ God,|let the peo- ple praise thee,|O God:|let all the peo- ple|praise _ _|
 edcB A^G A2 | T^G4) !fermata!A4 |:[M:3/2] A4 (AB c2) (B2 A2) | ^G4 G4 G4 | (c4 cd e2 d2 c2 | %27
w: _ _ _ _ _ _ _|* thee.|O let _ _ the _|na- tions re-|joice, _ _ _ _ _|
 B4 Bc d2 c2 B2 | A12 | ^G8) G4 | (c3 B c3 e d3 c | B8) e4 | (c3 d c3 B A3 c | B6) B2 A4 | ^G8 G4 | %35
w: _ _ _ _ _ _||* re-|joice, _ _ _ _ _|_ re-|joice _ _ _ _ _|_ and be|glad, for|
 (A4 ^G4) A4 | B8 A4 | ^G8 A4 | (B3 c B4) A4 | ^G8 G4 | A4 ^G4 A4 | B8 c4 | (B2 A2) T^G8 | A12 :| %44
w: thou _ shalt|judge the|peo- ple|right- * * eous-|ly, and|go- vern the|na- tions|up- * on|earth.|
[M:2/2]"^Chorus" AAAA ^G2 G2 | (A2 Bc) B4 | cccc B2 B2 | A4 ^G4 | A2 ^GA B2 c2 | (B2 A2 ^G4 | %50
w: Let the peo- ple praise thee,|O _ _ God,|let the peo- ple praise thee,|O God;|let all the peo- ple|praise _ _|
 edcB A^G A2 | T^G4) !fermata!A4 ||[M:3/2] z12 | z12 | z12 | z12 | z12 | z12 | %58
w: _ _ _ _ _ _ _|* thee.|||||||
 c4 (c2 B2) (A2 ^G2) | A8 ^G4 | A6 c2 (B2 A2) | ^G12 |"^Tutti" A4 A4 B4 | c8 (e2 d2) | %64
w: Then shall _ the _|earth bring|forth her in- *|crease,|then shall the|earth bring _|
 c6 c2 (d2 c2) | B8 ^G4 | A12 | B4 B4 A4 | ^G4 G4 (c2 d2) | (e3 d) c4 TB4 | A4 A8 |: z12 | z12 | %73
w: forth her in- *|crease, and|God,|e- ven our|own God, shall _|give _ us his|bless- ing.|||
 z12 | z12 | (B3 c B4) A4 | ^G4 G4 z4 | z12 | z12 | z12 | z12 | z8 ^G4 | c6 c2 c4 | d8 c4 | B8 z4 | %85
w: ||God _ _ shall|bless us,|||||and|all the ends|of the|earth,|
 c6 c2 c4 | B8 A4 | ^G8 A4 | (d2 c2 TB8) | A12 :|[M:2/2]"^Chorus" A2 A4 z2 | ^G2 G4 z2 | %92
w: all the ends|of the|earth shall|fear _ _|him.|Glo- ry,|glo- ry|
 A2 AA B2 BB | c2 c2 B2 c2 | c2 (dc) TB3 B | c4 z2 cB | (A^G)(AB) (cd) e2 | e2 e2 z2 d2 | %98
w: be to the Fa- ther, and|to the Son, and|to the _ Ho- ly|Ghost: as it|was _ in _ the * be-|gin- ning, is|
 c4 z2 c2 | A2 z2 z2 d2 | B4 z2 e2 | (B2 c2) (d2 A2) | ^G4 G4 | A4 A2 A2 | B4 B4 | c8 | c4 c2 c2 | %107
w: now, is|now, is|now, and|ev- * er _|shall be,|world with- out|end, A-|men,|world with- out|
 B4 A4 | ^G8 | (c4 B4 | A4 ^G4 | cB A2 B2 A2 | T^G8) | A8 |] %114
w: end, A-|men.|A- *||||men.|
V:2
 E8 E4 | E6 E2 C4 | F4 E8 | E8 (E3 F) | G4 G4 E4 | E8 E4 | E8 E4 | F8 E4 | E4 E4 E2 F2 | G6 F2 E4 | %10
w: God be|mer- ci- ful|un- to|us, and _|bless us, and|cause his|face to|shine up-|on us: that thy|ways may be|
 E6 F2 D4 | E8 z4 | z12 | z12 | z12 | z12 ||[M:2/2] EEEE E2 E2 | (F2 D2) E4 | GGGG G2 G2 | E4 E4 | %20
w: known up- on|earth,|||||Let the peo- ple praise thee,|O _ God,|let the peo- ple praise thee,|O God:|
 E2 EE E2 E2 | (D2 E6- | E4 F4 | E4) !fermata!E4 |:[M:3/2] z12 | z12 | z12 | z12 | z12 | z12 | %30
w: let all the peo- ple|praise _|_ _|* thee.|||||||
 E4 E4 F4 | E4 E4 E4 | A8 A4 | F6 F2 E4 | E8 E4 | E8 E4 | E8 E4 | E8 E4 | F8 E4 | E8 E4 | %40
w: O let the|na- tions re-|joice, re-|joice and be|glad, for|thou shalt|judge the|peo- ple|right- eous-|ly, and|
 C4 D4 E4 | E8 E4 | F4 E8 | E12 :|[M:2/2] EEEE E2 E2 | (F2 D2) E4 | GGGG G2 G2 | E4 E4 | %48
w: go- vern the|na- tions|up- on|earth.|Let the peo- ple praise thee,|O _ God,|let the peo- ple praise thee,|O God;|
 E2 EE E2 E2 | (D2 E6- | E4 F4 | E4) !fermata!E4 ||[M:3/2] z12 | z12 | E8 E2 E2 | G8 G4 | %56
w: let all the peo- ple|praise _|_ _|* thee.|||Then shall the|earth bring|
 A6 G2 F4 | E12 | z12 | z12 | z12 | z12 | E4 E4 G4 | G8 A4 | A6 A2 F4 | E8 E4 | E12 | F4 F4 E4 | %68
w: forth her in-|crease,|||||then shall the|earth bring|forth her in-|crease, and|God,|e- ven our|
 E4 E4 E4 | E6 E2 E4 | E4 E8 |: z12 | z12 | z12 | z12 | F8 E4 | E4 E4 z4 | z12 | z12 | z12 | z12 | %81
w: own God, shall|give us his|bless- ing.|||||God shall|bless us,|||||
 z8 E4 | E6 E2 E4 | F8 E4 | E8 z4 | G6 G2 G4 | G8 E4 | E8 E4 | (F4 E8) | E12 :|[M:2/2] E2 E4 z2 | %91
w: and|all the ends|of the|earth,|all the ends|of the|earth shall|fear _|him.|Glo- ry,|
 E2 E4 z2 | E2 EE G2 GG | G2 G2 G2 G2 | A2 A2 G3 G | G4 z4 | z4 z2 GG | G2 A2 A2 F2 | E2 GG G2 z2 | %99
w: glo- ry|be to the Fa- ther, and|to the Son, and|to the Ho- ly|Ghost:|as it|was in the be-|gin- ning, is now,|
 z2 ^F2 G2 z2 | z2 G2 A2 [EG]2 | F4 (D2 E2) | E4 E4 | E4 E2 E2 | G4 G4 | G8 | G4 G2 G2 | G4 E4 | %108
w: is now,|is now, and|ev- er _|shall be,|world with- out|end, A-|men,|world with- out|end, A-|
 E8 | (E4 G4 | E8 | A2 G2 F4 | E8) | E8 |] %114
w: men.|A- *||||men.|
V:3
 A8 B4 | c6 B2 A4 | B4 ^G8 | A8 (c3 d) | e4 e4 B4 | (c4 B4) A4 | ^G8 A4 | (d3 e d4) c4 | B4 B4 z4 | %9
w: God be|mer- ci- ful|un- to|us, and _|bless us, and|cause _ his|face to|shine _ _ up-|on us:|
 z12 | z12 | z8 B4 | (e4 d2 c2) (B2 A2) | ^G8 A4 | (d2 c2) TB8 | A4 A8 ||[M:2/2] AAcc B2 B2 | %17
w: ||thy|sav- * * ing _|health a-|mong _ all|na- tions.|Let the peo- ple praise thee,|
 (c2 BA) ^G4 | eeee d2 d2 | c4 B4 | c2 BA ^G2 A2 | (d2 c2 B4 | cBA^G AB c2 | TB4) !fermata!A4 |: %24
w: O _ _ God,|let the peo- ple praise thee,|O God:|let all the peo- ple|praise _ _|_ _ _ _ _ _ _|* thee.|
[M:3/2] z12 | z12 | A4 (AB c2) (B2 A2) | ^G4 G4 G4 | (c4 cd e2 d2 c2 | B4 Bc d2 c2 B2 | %30
w: ||O let _ _ the _|na- tions re-|joice, _ _ _ _ _|_ _ _ _ _ _|
 A3 ^G A3 c B3 A | ^G8) G4 | A8 A4 | d6 d2 c4 | B8 B4 | (c4 B4) A4 | ^G8 A4 | B8 c4 | %38
w: |* re-|joice, re-|joice and be|glad, for|thou _ shalt|judge the|peo- ple|
 (d3 e d4) c4 | B8 B4 | c4 B4 A4 | ^G8 A4 | (d2 c2) TB8 | A12 :|[M:2/2] AAcc B2 B2 | (c2 BA) ^G4 | %46
w: right- * * eous-|ly, and|go- vern the|na- tions|up- * on|earth.|Let the peo- ple praise thee,|O _ _ God,|
 eeee d2 d2 | c4 B4 | c2 BA ^G2 A2 | (d2 c2 B4 | cBA^G AB c2 | TB4) !fermata!A4 ||[M:3/2] z12 | %53
w: let the peo- ple praise thee,|O God;|let all the peo- ple|praise _ _|_ _ _ _ _ _ _|* thee.||
 z12 | z12 | z12 | z12 | z12 | e4 (e2 d2) (c2 B2) | A8 B4 | c6 e2 (d2 c2) | B12 | c4 c4 d4 | %63
w: |||||Then shall _ the _|earth bring|forth her in- *|crease,|then shall the|
 e8 (c2 B2) | A6 c2 (B2 A2) | ^G8 B4 | c12 | d4 d4 c4 | B4 B4 (e2 d2) | (c3 B) A4 T^G4 | A4 A8 |: %71
w: earth bring _|forth her in- *|crease, and|God,|e- ven our|own God, shall _|give _ us his|bless- ing.|
 (e4 A4) B4 | (c3 d c2 B2) A4 | z12 | z12 | (d3 e d4) c4 | B4 B4 z4 | (e3 d c4) B4 | %78
w: God _ shall|bless _ _ _ us,|||God _ _ shall|bless us,|God _ _ shall|
 (c3 B) A4 ^G4 | (A3 B A3 c B3 d | c8 d4 | e4) e4 (c2 B2) | A6 A2 A4 | B4 A8 | ^G8 z4 | e6 e2 e4 | %86
w: bless _ us, shall|bless _ _ _ _ _|_ _|* us, and _|all the ends|of the|earth,|all the ends|
 d8 c4 | B8 c4 | (B2 A2 T^G8) | A12 :|[M:2/2] A2 A4 z2 | B2 B4 z2 | c2 cc d2 dd | e2 e2 d2 e2 | %94
w: of the|earth shall|fear _ _|him.|Glo- ry,|glo- ry|be to the Fa- ther, and|to the Son, and|
 e2 (fe) Td3 d | e4 z2 ed | (cB)(A^G) A2 B2 | c2 c2 z2 d2 | e4 z2 c2 | d2 z2 z2 d2 | e4 z2 (Bc) | %101
w: to the _ Ho- ly|Ghost: as it|was _ in _ the be-|gin- ning, is|now, is|now, is|now, and _|
 (d2 e2) (d2 c2) | B4 B4 | c4 c2 c2 | d4 d4 | e8 | e4 e2 e2 | d4 c4 | B8 | (e4 d4 | c4 B4 | %111
w: ev- * er _|shall be,|world with- out|end, A-|men,|world with- out|end, A-|men.|A- *||
 AB c2 d2 c2 | TB8) | A8 |] %114
w: ||men.|
V:4
 A,,8 E,4 | A,6 G,2 F,4 | D,4 E,8 | A,,8 E,4 | C,4 C,4 E,4 | (A,,4 B,,4) (C,2 D,2) | E,8 C,4 | %7
w: God be|mer- ci- ful|un- to|us, and|bless us, and|cause _ his _|face to|
 D,8 A,,4 | E,4 E,4 E,2 D,2 | C,6 D,2 E,4 | A,6 F,2 G,4 | C,8 z4 | z12 | z12 | z12 | z12 || %16
w: shine up-|on us: that thy|ways may be|known up- on|earth,|||||
[M:2/2] A,,A,,A,,A,, E,2 E,2 | (A,2 G,F,) E,4 | C,C,C,C, G,2 G,2 | A,4 E,4 | %20
w: Let the peo- ple praise thee,|O _ _ God,|let the peo- ple praise thee,|O God:|
"^Note: The alto part is printed in the alto clef in the source." C,2 C,C, E,2 A,2 | %21
w: let all the peo- ple|
 (D,2 A,,2 E,4 | C,4 D,2 A,,2 | E,4) !fermata!A,,4 |:[M:3/2] z12 | z12 | z12 | z12 | %28
w: praise _ _|_ _ _|* thee.|||||
 A,,4 (A,,B,, C,2) (B,,2 A,,2) | E,4 E,4 C,4 | C,8 B,,4 | E,8 E,4 | F,8 F,4 | D,6 D,2 A,,4 | %34
w: O let _ _ the _|na- tions re-|joice, re-|joice, re-|joice, re-|joice and be|
 E,8 E,4 | (A,,4 B,,4) (C,3 D,) | E,8 A,,4 | E,8 A,4 | D,8 A,,4 | E,8 E,4 | A,,4 B,,4 (C,3 D,) | %41
w: glad, for|thou _ shalt _|judge the|peo- ple|right- eous-|ly, and|go- vern the _|
 E,8 C,4 | D,4 E,8 | A,,12 :|[M:2/2] A,,A,,A,,A,, E,2 E,2 | (A,2 G,F,) E,4 | C,C,C,C, G,2 G,2 | %47
w: na- tions|up- on|earth.|Let the peo- ple praise thee,|O _ _ God,|let the peo- ple praise thee,|
 A,4 E,4 | C,2 C,C, E,2 A,2 | (D,2 A,,2 E,4 | C,4 D,2 A,,2 | E,4) !fermata!A,,4 || %52
w: O God;|let all the peo- ple|praise _ _|_ _ _|* thee.|
[M:3/2] E,8 D,2 C,2 | G,8 E,4 | A,6 A,2 A,4 | G,8 E,4 | F,6 E,2 D,4 | E,12 | z12 | z12 | z12 | %61
w: Then shall the|earth bring|forth her in-|crease, bring|forth her in-|crease,||||
 z12 | C,4 C,4 G,4 | C8 A,4 | F,6 F,2 D,4 | E,8 E,4 | A,,12 | D,4 D,4 A,,4 | E,4 E,4 (C,2 B,,2) | %69
w: |then shall the|earth bring|forth her in-|crease, and|God,|e- ven our|own God, shall _|
 A,,6 A,,2 E,4 | A,,4 A,,8 |: z12 | z12 | (E,4 A,,4) B,,4 | (C,3 D, C,2 B,,2) A,,4 | D,8 A,,4 | %76
w: give us his|bless- ing.|||God _ shall|bless _ _ _ us,|God shall|
 E,4 E,4 z4 | z12 | z8 E,4 | (A,,8 E,4 | A,8 G,4 | C,4) C,4 E,4 | A,,6 A,,2 A,,4 | D,8 A,,4 | %84
w: bless us,||shall|bless _|_ _|* us, and|all the ends|of the|
 E,8 z4 | C,6 C,2 C,4 | G,8 A,4 | E,8 A,4 | (D,4 E,8) | A,,12 :|[M:2/2] A,,2 A,,4 z2 | E,2 E,4 z2 | %92
w: earth,|all the ends|of the|earth shall|fear _|him.|Glo- ry,|glo- ry|
 A,2 A,A, G,2 G,G, | C,2 C,2 G,2 E,2 | A,2 F,2 G,2 G,,2 | C,4 z4 | z4 z2 E,E, | %97
w: be to the Fa- ther, and|to the Son, and|to the Ho- ly|Ghost:|as it|
 (C,B,,)(A,,G,,) A,,2 B,,2 | C,2 C,C, D,2 z2 | z2 D,2 E,2 z2 | z2 E,2 F,2 E,2 | %101
w: was _ in _ the be-|gin- ning, is now,|is now,|is now, and|
 (D,2 C,2) (B,,2 A,,2) | E,4 E,4 | A,4 A,2 A,2 | G,4 G,4 | C,8 | C4 C2 C2 | G,4 A,4 | E,8 | %109
w: ev- * er _|shall be,|world with- out|end, A-|men,|world with- out|end, A-|men.|
 (C,4 G,4 | A,4 E,4 | F,2 E,2 D,4 | E,8) | A,,8 |] %114
w: A- *||||men.|
V:5
 x12 | x12 | x12 | x12 | x12 | x12 | x12 | x12 | x12 | x12 | x12 | x12 | x12 | x12 | x12 | x12 || %16
[M:2/2] x8 | x8 | x8 | x8 | x8 | x8 | x8 | x8 |:[M:3/2] x12 | x12 | x12 | x12 | x12 | x12 | x12 | %31
 x12 | x12 | x12 | x12 | x12 | x12 | x12 | x12 | x12 | x12 | x12 | x12 | x12 :|[M:2/2] x8 | x8 | %46
 x8 | x8 | x8 | x8 | x8 | x8 ||[M:3/2] x12 | x12 | x12 | x12 | x12 | x12 | x12 | x12 | x12 | x12 | %62
 x12 | x12 | x12 | x12 | x12 | x12 | x12 | x12 | x12 |: x12 | x12 | x12 | x12 | x12 | x12 | x12 | %78
 x12 | x12 | x12 | x12 | x12 | x12 | x12 | x12 | x12 | x12 | x12 | x12 :|[M:2/2] x8 | x8 | x8 | %93
 x8 | x8 | x8 | x8 | x8 | x8 | x8 | x8 | x8 | x8 | x8 | x4 G,F,E,D, | x8 | x8 | x8 | x8 | x8 | x8 | %111
 x8 | x8 | x8 |] %114

